site/pages/technology/images/react-meetup.svg

<?xml version="1.0" encoding="UTF-8"?>
<svg width="34px" height="30px" viewBox="0 0 34 30" version="1.1" xmlns="http://www.w3.org/2000/svg" xmlns:xlink="http://www.w3.org/1999/xlink">
    <!-- Generator: Sketch 44.1 (41455) - http://www.bohemiancoding.com/sketch -->
    <title>react-meetup</title>
    <defs>
        <polygon id="path-rm" points="0 29.6571879 33.3012903 29.6571879 33.3012903 0 3.64315247e-21 0"></polygon>
    </defs>
    <g stroke="none" stroke-width="1" fill="none" fill-rule="evenodd">
        <g transform="translate(-869.000000, -2351.000000)">
            <g transform="translate(0.000000, 2269.000000)">
                <g transform="translate(848.000000, 69.000000)">
                    <g transform="translate(21.000000, 13.000000)">
                        <g>
                            <g>
                                <g>
                                    <mask id="mask-2" fill="white">
                                        <use xlink:href="#path-rm"></use>
                                    </mask>
                                    <g id="path-rm"></g>
                                    <path d="M33.3013441,14.8286932 C33.3013441,12.5131018 30.5239247,10.5077255 26.2107527,9.30799431 C26.397043,8.58675778 26.547043,7.88406958 26.6537634,7.20826315 C27.1983871,3.76256421 26.6024194,1.34804809 24.9760753,0.408800779 C23.3494624,-0.529908901 20.9604839,0.161220133 18.2483871,2.35557497 C17.716129,2.78622013 17.1822581,3.26794058 16.6508065,3.79025238 C16.119086,3.26794058 15.5852151,2.78622013 15.052957,2.35557497 C12.341129,0.161220133 9.9513441,-0.530446534 8.32526883,0.408800779 C6.69892473,1.34804809 6.102957,3.76256421 6.64758063,7.20826315 C6.75430106,7.88406958 6.90430106,8.58675778 7.0905914,9.30799431 C2.77741935,10.5077255 0,12.5131018 0,14.8286932 C0,17.1442846 2.77741935,19.149661 7.0905914,20.3493922 C6.90430106,21.0706287 6.75430106,21.7733169 6.64758063,22.4491233 C6.102957,25.8948223 6.69892473,28.3093384 8.32526883,29.2485857 C8.79919356,29.5219728 9.3376344,29.6571879 9.93010753,29.6571879 C11.3709677,29.6571879 13.130914,28.8571879 15.052957,27.3018115 C15.5852151,26.8711664 16.119086,26.3894459 16.6508065,25.8671341 C17.1822581,26.3894459 17.716129,26.8711664 18.2483871,27.3018115 C20.1704301,28.8571879 21.9301075,29.6571879 23.3715054,29.6571879 C23.9637097,29.6571879 24.5024194,29.5219728 24.9760753,29.2485857 C26.6024194,28.3093384 27.1983871,25.8948223 26.6537634,22.4491233 C26.547043,21.7733169 26.397043,21.0706287 26.2107527,20.3493922 C30.5239247,19.149661 33.3013441,17.1442846 33.3013441,14.8286932 M18.8723118,3.12654271 C20.6010753,1.72761798 22.1698925,0.992940563 23.3663979,0.992940563 C23.7865591,0.992940563 24.1610215,1.08353196 24.4801075,1.26794056 C25.7080645,1.97654271 26.1432796,4.08541368 25.6744624,7.05369325 C25.5723118,7.69885455 25.4293011,8.37009111 25.2510753,9.05960725 C23.7806452,8.70906958 22.1567204,8.44831691 20.4228495,8.29240291 C19.4360215,6.89159648 18.3989247,5.61337068 17.3446237,4.49804808 C17.8532258,3.99831691 18.3637097,3.53783305 18.8723118,3.12654271 M21.5978495,17.6851449 C21.0486559,18.6362201 20.4715054,19.5501986 19.8747312,20.418747 C18.8473118,20.4980481 17.7717742,20.5413276 16.6508065,20.5413276 C15.5295699,20.5413276 14.4540323,20.4980481 13.4266129,20.418747 C12.8298387,19.5501986 12.2526882,18.6362201 11.7034946,17.6851449 C11.1548387,16.734876 10.6524194,15.7789621 10.1989247,14.8286932 C10.6524194,13.8784244 11.1548387,12.9225104 11.7034946,11.9722416 C12.2526882,11.0211664 12.8298387,10.1074567 13.4266129,9.23863948 C14.4540323,9.15960725 15.5295699,9.11605885 16.6508065,9.11605885 C17.7717742,9.11605885 18.8473118,9.15960725 19.8747312,9.23863948 C20.4715054,10.1074567 21.0486559,11.0211664 21.5978495,11.9722416 C22.1465054,12.9225104 22.6489247,13.8784244 23.1024194,14.8286932 C22.6489247,15.7789621 22.1465054,16.734876 21.5978495,17.6851449 M23.6352151,15.9953599 C24.1790323,17.2402524 24.6322581,18.4660588 24.9854839,19.6458975 C23.8206989,19.9222416 22.5365591,20.1440158 21.1508065,20.2980481 C21.6,19.6152524 22.0365591,18.9082631 22.4567204,18.1808438 C22.8760753,17.4544997 23.269086,16.7243922 23.6352151,15.9953599 M16.6508065,24.4507362 C15.8072581,23.5561126 14.9739247,22.5528868 14.169086,21.4614889 C14.9774194,21.5082631 15.8053763,21.5329943 16.6508065,21.5329943 C17.4959677,21.5329943 18.3239247,21.5082631 19.1322581,21.4614889 C18.3274194,22.5528868 17.4943548,23.5561126 16.6508065,24.4507362 M12.1505376,20.2980481 C10.7647849,20.1440158 9.48091396,19.9222416 8.31612903,19.6458975 C8.66908603,18.4660588 9.12231183,17.2402524 9.66612903,15.9953599 C10.0322581,16.7243922 10.4252688,17.4544997 10.8446237,18.1808438 C11.2647849,18.9082631 11.7013441,19.6152524 12.1505376,20.2980481 M9.66612903,13.6620266 C9.12231183,12.4171341 8.66908603,11.1913276 8.31612903,10.0114889 C9.48091396,9.73514488 10.7647849,9.51337068 12.1505376,9.35933841 C11.7013441,10.0421341 11.2647849,10.7491233 10.8446237,11.4765427 C10.4252688,12.2028868 10.0322581,12.9329943 9.66612903,13.6620266 M16.6508065,5.20665025 C17.4943548,6.10127391 18.3274194,7.10449971 19.1322581,8.19589755 C18.3239247,8.14912335 17.4959677,8.12439218 16.6508065,8.12439218 C15.8053763,8.12439218 14.9774194,8.14912335 14.169086,8.19589755 C14.9739247,7.10449971 15.8072581,6.10127391 16.6508065,5.20665025 M22.4567204,11.4765427 C22.0365591,10.7491233 21.6,10.0421341 21.1508065,9.35933841 C22.5365591,9.51337068 23.8206989,9.73514488 24.9854839,10.0114889 C24.6322581,11.1913276 24.1790323,12.4171341 23.6352151,13.6620266 C23.269086,12.9329943 22.8760753,12.2028868 22.4567204,11.4765427 M7.62715053,7.05369325 C7.15806453,4.08541368 7.59327956,1.97654271 8.82123656,1.26794056 C9.1405914,1.08353196 9.51451613,0.992940563 9.93494623,0.992940563 C11.1311828,0.992940563 12.7002688,1.7278868 14.4290323,3.12654271 C14.9376344,3.53783305 15.4481183,3.99831691 15.9569893,4.49804808 C14.9024194,5.61337068 13.8653226,6.89159648 12.8784946,8.29240291 C11.1448925,8.44831691 9.52069893,8.70906958 8.05026883,9.05960725 C7.87231183,8.37009111 7.72903226,7.69885455 7.62715053,7.05369325 M0.991935483,14.8286932 C0.991935483,13.1362201 3.3626344,11.371704 7.35564516,10.2593384 C7.79489246,11.7321879 8.38387096,13.2714352 9.1045699,14.8286932 C8.38387096,16.3859513 7.79489246,17.9251986 7.35564516,19.3980481 C3.3626344,18.2856825 0.991935483,16.5211664 0.991935483,14.8286932 M14.4290323,26.5308438 C12.0930108,28.4211664 10.0494624,29.0991233 8.82123656,28.3894459 C7.59327956,27.6808438 7.15806453,25.5719728 7.62715053,22.6036932 C7.72903226,21.9585319 7.87231183,21.2872954 8.05026883,20.5977793 C9.52069893,20.9483169 11.1448925,21.2090696 12.8784946,21.3649836 C13.8653226,22.76579 14.9024194,24.0440158 15.9569893,25.1593384 C15.4481183,25.6590696 14.9376344,26.1195535 14.4290323,26.5308438 M25.6744624,22.6036932 C26.1432796,25.5719728 25.7080645,27.6808438 24.4801075,28.3894459 C23.2524194,29.0985857 21.2083333,28.4208975 18.8723118,26.5308438 C18.3637097,26.1195535 17.8532258,25.6590696 17.3446237,25.1593384 C18.3989247,24.0440158 19.4360215,22.76579 20.4228495,21.3649836 C22.1567204,21.2090696 23.7806452,20.9483169 25.2510753,20.5977793 C25.4293011,21.2872954 25.5723118,21.9585319 25.6744624,22.6036932 M25.9456989,19.3980481 C25.5067204,17.9251986 24.9174731,16.3859513 24.197043,14.8286932 C24.9174731,13.2714352 25.5067204,11.7321879 25.9456989,10.2593384 C29.9387097,11.371704 32.3096774,13.1362201 32.3096774,14.8286932 C32.3096774,16.5211664 29.9387097,18.2856825 25.9456989,19.3980481" id="Fill-3" fill="#F8F8F8" mask="url(#mask-2)"></path>
                                </g>
                            </g>
                            <path d="M17.0505376,12 C15.3658602,12 14,13.3658602 14,15.0505376 C14,16.7352151 15.3658602,18.1010753 17.0505376,18.1010753 C18.7352151,18.1010753 20.1010753,16.7352151 20.1010753,15.0505376 C20.1010753,13.3658602 18.7352151,12 17.0505376,12" id="Fill-1" fill="#F8F8F8"></path>
                        </g>
                    </g>
                </g>
            </g>
        </g>
    </g>
</svg>

<svg width="34" height="30" viewBox="0 0 34 30" xmlns="http://www.w3.org/2000/svg" xmlns:xlink="http://www.w3.org/1999/xlink"><defs><path id="a" d="M0 29.657h33.301V0H0z"/></defs><g fill="none" fill-rule="evenodd"><g><mask id="b" fill="#fff"><use xlink:href="#a"/></mask><path d="M33.301 14.829c0-2.316-2.777-4.321-7.09-5.521a22.42 22.42 0 0 0 .443-2.1c.544-3.445-.052-5.86-1.678-6.8C23.35-.53 20.96.162 18.248 2.357a22.36 22.36 0 0 0-1.597 1.434 22.421 22.421 0 0 0-1.598-1.434C12.341.16 9.951-.53 8.325.409c-1.626.939-2.222 3.354-1.677 6.8.106.675.256 1.378.443 2.099C2.777 10.508 0 12.513 0 14.828c0 2.316 2.777 4.322 7.09 5.521a22.42 22.42 0 0 0-.442 2.1c-.545 3.446.05 5.86 1.677 6.8a3.161 3.161 0 0 0 1.605.408c1.441 0 3.2-.8 5.123-2.355.532-.43 1.066-.913 1.598-1.435a22.36 22.36 0 0 0 1.597 1.435c1.922 1.555 3.682 2.355 5.124 2.355a3.16 3.16 0 0 0 1.604-.408c1.626-.94 2.222-3.354 1.678-6.8a22.42 22.42 0 0 0-.443-2.1c4.313-1.2 7.09-3.205 7.09-5.52M18.872 3.127c1.73-1.4 3.298-2.134 4.494-2.134.42 0 .795.09 1.114.275 1.228.709 1.663 2.817 1.194 5.786a21.465 21.465 0 0 1-.423 2.006 34.113 34.113 0 0 0-4.828-.768 34.28 34.28 0 0 0-3.078-3.794c.508-.5 1.019-.96 1.527-1.371m2.726 14.558a41.32 41.32 0 0 1-1.723 2.734c-1.028.079-2.103.122-3.224.122s-2.197-.043-3.224-.122a41.32 41.32 0 0 1-3.228-5.59 41.277 41.277 0 0 1 3.228-5.59 42.04 42.04 0 0 1 6.448 0 41.39 41.39 0 0 1 3.227 5.59c-.453.95-.955 1.906-1.504 2.856m2.037-1.69c.544 1.245.997 2.471 1.35 3.65a31.979 31.979 0 0 1-3.834.653 42.857 42.857 0 0 0 2.484-4.303m-6.984 8.456a32.372 32.372 0 0 1-2.482-2.99 42.968 42.968 0 0 0 4.963 0 32.37 32.37 0 0 1-2.481 2.99m-4.5-4.153a31.974 31.974 0 0 1-3.835-.652c.353-1.18.806-2.406 1.35-3.65a42.71 42.71 0 0 0 2.485 4.302m-2.485-6.636a32.287 32.287 0 0 1-1.35-3.65 31.974 31.974 0 0 1 3.835-.653 42.857 42.857 0 0 0-2.485 4.303m6.985-8.455a32.37 32.37 0 0 1 2.481 2.989 42.966 42.966 0 0 0-4.963 0 32.372 32.372 0 0 1 2.482-2.99m5.806 6.27A42.857 42.857 0 0 0 21.15 9.36c1.386.154 2.67.376 3.834.652a32.342 32.342 0 0 1-1.35 3.651 42.71 42.71 0 0 0-1.178-2.185M7.627 7.054c-.469-2.969-.034-5.077 1.194-5.786.32-.184.694-.275 1.114-.275 1.196 0 2.765.735 4.494 2.134.509.41 1.02.871 1.528 1.371a34.25 34.25 0 0 0-3.079 3.794 34.119 34.119 0 0 0-4.828.768c-.178-.69-.321-1.361-.423-2.006M.992 14.829c0-1.693 2.37-3.457 6.364-4.57a34.31 34.31 0 0 0 1.749 4.57 34.31 34.31 0 0 0-1.75 4.569C3.364 18.286.993 16.521.993 14.828m13.437 11.703c-2.336 1.89-4.38 2.568-5.608 1.858-1.228-.708-1.663-2.817-1.194-5.785.102-.645.245-1.317.423-2.006 1.47.35 3.095.611 4.828.767a34.25 34.25 0 0 0 3.079 3.794c-.509.5-1.02.96-1.528 1.372m11.245-3.927c.47 2.968.034 5.077-1.194 5.785-1.228.71-3.272.032-5.608-1.858a21.35 21.35 0 0 1-1.527-1.372 34.28 34.28 0 0 0 3.078-3.794 34.113 34.113 0 0 0 4.828-.767c.178.69.321 1.36.423 2.006m.272-3.206a34.307 34.307 0 0 0-1.749-4.57 34.307 34.307 0 0 0 1.749-4.569c3.993 1.113 6.364 2.877 6.364 4.57 0 1.692-2.371 3.457-6.364 4.569" fill="#F8F8F8" mask="url(#b)"/></g><path d="M17.05 12a3.05 3.05 0 1 0 0 6.101 3.05 3.05 0 0 0 0-6.101" fill="#F8F8F8"/></g></svg>
